assets/imgs/img/keyVisual_1.svg

<svg width="120" height="109" viewBox="0 0 120 109" fill="none" xmlns="http://www.w3.org/2000/svg">
<g clip-path="url(#clip0_1741_64)">
<path d="M40.4073 45.2728V41.1492H36.2727V45.2728V49.4074H40.4073V45.2728Z" fill="black"/>
<path d="M48.6654 37.0146H44.5309H40.4072V41.1492H44.5309H48.6654H52.789V37.0146H48.6654Z" fill="black"/>
<path d="M52.7891 49.4074H56.9236V45.2728V41.1492H52.7891V45.2728V49.4074Z" fill="black"/>
<path d="M52.789 53.5309H48.6654V57.6654H44.5309V61.789V65.9236V70.0581V74.1818H40.4072V78.3163H44.5309H48.6654H52.789V74.1818H56.9236V70.0581V65.9236H61.0472V61.789V57.6654V53.5309V49.4072H56.9236V53.5309H52.789Z" fill="black"/>
<path d="M40.4073 65.9236H36.2727V70.0581V74.1818H40.4073V70.0581V65.9236Z" fill="black"/>
<path d="M36.2727 57.6654V53.5309V49.4072H32.1382V53.5309V57.6654V61.789V65.9236H36.2727V61.789V57.6654Z" fill="black"/>
<path d="M73.44 45.2728V41.1492H69.3164V45.2728V49.4074H73.44V45.2728Z" fill="black"/>
<path d="M81.6981 37.0146H77.5745H73.4399V41.1492H77.5745H81.6981H85.8327V37.0146H81.6981Z" fill="black"/>
<path d="M85.8328 49.4074H89.9564V45.2728V41.1492H85.8328V45.2728V49.4074Z" fill="black"/>
<path d="M85.8327 53.5309H81.6981V57.6654H77.5745V61.789V65.9236V70.0581V74.1818H73.4399V78.3163H77.5745H81.6981H85.8327V74.1818H89.9563V70.0581V65.9236H94.0909V61.789V57.6654V53.5309V49.4072H89.9563V53.5309H85.8327Z" fill="black"/>
<path d="M73.44 65.9236H69.3164V70.0581V74.1818H73.44V70.0581V65.9236Z" fill="black"/>
<path d="M69.3164 57.6654V53.5309V49.4072H65.1819V53.5309V57.6654V61.789V65.9236H69.3164V61.789V57.6654Z" fill="black"/>
<path d="M0 38.1818V43.6364V49.0909H5.45455V54.1527H10.9091V48.6982H5.45455V43.6364V38.1818V32.7273H0V38.1818Z" fill="black"/>
<path d="M10.9091 27.2727H5.45459V32.7273H10.9091V27.2727Z" fill="black"/>
<path d="M21.8183 27.2726H27.2728H32.7274V21.8181V16.3635H27.2728V21.8181H21.8183H16.3637H10.9092V27.2726H16.3637H21.8183Z" fill="black"/>
<path d="M38.1818 10.9092H32.7273V16.3637H38.1818V10.9092Z" fill="black"/>
<path d="M43.6364 5.45459H38.1819V10.9091H43.6364V5.45459Z" fill="black"/>
<path d="M49.091 0H43.6365V5.45455H49.091V0Z" fill="black"/>
<path d="M54.5454 0H49.0908V5.45455H54.5454V0Z" fill="black"/>
<path d="M60 5.45459H54.5454V10.9091H60V5.45459Z" fill="black"/>
<path d="M65.4545 10.9092H60V16.3637H65.4545V10.9092Z" fill="black"/>
<path d="M83.771 5.45459H81.8182H76.3637H70.9091H65.4546V10.9091H70.9091H76.3637H81.8182H83.771H87.2728V5.45459H83.771Z" fill="black"/>
<path d="M92.7273 10.9092H87.2727V16.3637H92.7273V10.9092Z" fill="black"/>
<path d="M109.091 54.1528V49.091H103.636V38.1819H109.091V27.2728H103.636V21.8182H92.7273H87.2728V16.3637V10.9091H65.4546V16.3637H60V10.9091H54.5455V5.45459H43.6364V10.9091H38.1819V16.3637H32.7273V27.2728H10.9091V32.7273H5.45459V48.6982H10.9091V54.1528H16.3637V59.6073H21.8182V70.5164H16.3637V75.971H10.9091V86.88H16.3637H27.2728V92.3346H32.7273V97.7891H38.1819V103.244H49.091V97.7891H65.4546V103.244H81.8182V97.7891H87.2728V92.3346H92.7273V97.7891H109.091V92.3346H114.546V81.4255H109.091V75.971H103.636V70.5164H109.091V65.0619H114.546V54.1528H109.091ZM61.0473 53.531V65.9237H56.9128V74.1819H52.7782V78.3164H40.3855V74.1819H36.251V65.9237H32.1164V49.4073H36.251V41.1491H40.3855V37.0146H52.7782V41.1491H56.9128V49.4073H61.0473V53.5419V53.531ZM94.091 53.531V65.9237H89.9564V74.1819H85.8219V78.3164H73.4291V74.1819H69.2946V65.9237H65.16V49.4073H69.2946V41.1491H73.4291V37.0146H85.8219V41.1491H89.9564V49.4073H94.091V53.5419V53.531Z" fill="#D390FF"/>
<path d="M92.7273 16.3635H87.2727V21.8181H92.7273V16.3635Z" fill="black"/>
<path d="M98.1818 16.3635H92.7273V21.8181H98.1818V16.3635Z" fill="black"/>
<path d="M103.636 16.3635H98.1819V21.8181H103.636V16.3635Z" fill="black"/>
<path d="M109.091 16.3635H103.636V21.8181H109.091V16.3635Z" fill="black"/>
<path d="M109.091 21.8181H103.636V27.2727H109.091V21.8181Z" fill="black"/>
<path d="M114.545 32.7273V27.2727H109.091V32.7273V38.1818H114.545V32.7273Z" fill="black"/>
<path d="M109.091 48.6982V43.6364V38.1819H103.636V43.6364V49.091H109.091V54.1528H114.546V48.6982H109.091Z" fill="black"/>
<path d="M114.545 59.6074V65.0619H120V59.6074V54.1528H114.545V59.6074Z" fill="black"/>
<path d="M114.545 65.0618H109.091V70.5163H114.545V65.0618Z" fill="black"/>
<path d="M109.091 70.5164H103.636V75.9709H109.091V70.5164Z" fill="black"/>
<path d="M114.545 75.9709H109.091V81.4255H114.545V75.9709Z" fill="black"/>
<path d="M114.545 92.3346H120V86.8801V81.4255H114.545V86.8801V92.3346Z" fill="black"/>
<path d="M114.545 92.3345H109.091V97.789H114.545V92.3345Z" fill="black"/>
<path d="M98.1818 97.7891H92.7273V103.244H98.1818H103.636H109.091V97.7891H103.636H98.1818Z" fill="black"/>
<path d="M92.7273 92.3345H87.2727V97.789H92.7273V92.3345Z" fill="black"/>
<path d="M87.2727 97.7891H81.8181V103.244H87.2727V97.7891Z" fill="black"/>
<path d="M70.9091 103.244H65.4546V108.698H70.9091H76.3637H81.8182V103.244H76.3637H70.9091Z" fill="black"/>
<path d="M59.9999 97.7891H54.5454H49.0908V103.244H54.5454H59.9999H65.4545V97.7891H59.9999Z" fill="black"/>
<path d="M38.1819 103.244V108.698H43.6364H49.091V103.244H43.6364H38.1819Z" fill="black"/>
<path d="M38.1818 97.7891H32.7273V103.244H38.1818V97.7891Z" fill="black"/>
<path d="M32.7273 92.3345H27.2727V97.789H32.7273V92.3345Z" fill="black"/>
<path d="M27.2728 86.8799H21.8183H16.3637H10.9092V92.3344H16.3637H21.8183H27.2728V86.8799Z" fill="black"/>
<path d="M5.45459 81.4255V86.88H10.9091V81.4255V75.9709H5.45459V81.4255Z" fill="black"/>
<path d="M16.3637 70.5164H10.9092V75.9709H16.3637V70.5164Z" fill="black"/>
<path d="M16.3635 70.5163H21.8181V65.0617V59.6072H16.3635V65.0617V70.5163Z" fill="black"/>
<path d="M16.3637 54.1528H10.9092V59.6074H16.3637V54.1528Z" fill="black"/>
</g>
<defs>
<clipPath id="clip0_1741_64">
<rect width="120" height="108.698" fill="white"/>
</clipPath>
</defs>
</svg>

<svg xmlns="http://www.w3.org/2000/svg" width="120" height="109" fill="none" viewBox="0 0 120 109"><g clip-path="url(#clip0_1741_64)"><path fill="#000" d="M40.407 45.273v-4.124h-4.134v8.258h4.134zm8.258-8.258h-8.258v4.134H52.79v-4.134zm4.125 12.392h4.134V41.15h-4.135v8.258m0 4.122h-4.124v4.135h-4.134v16.517h-4.124v4.134H52.79v-4.134h4.135v-8.258h4.123V49.407h-4.123v4.124zM40.407 65.924h-4.134v8.258h4.134zm-4.134-8.259v-8.258h-4.135v16.517h4.135zM73.44 45.273v-4.124h-4.124v8.258h4.124zm8.258-8.258H73.44v4.134h12.393v-4.134zm4.135 12.392h4.123V41.15h-4.123v8.258m0 4.122h-4.135v4.135h-4.123v16.517H73.44v4.134h12.393v-4.134h4.123v-8.258h4.135V49.407h-4.135v4.124zM73.44 65.924h-4.124v8.258h4.124zm-4.124-8.259v-8.258h-4.134v16.517h4.134zM0 38.182V49.09h5.455v5.062h5.454v-5.455H5.455v-15.97H0zm10.91-10.909H5.454v5.454h5.454zm10.908 0h10.909v-10.91h-5.454v5.455H10.909v5.455zM38.182 10.91h-5.455v5.454h5.455zm5.454-5.455h-5.454v5.454h5.454zM49.091 0h-5.455v5.455h5.455zm5.454 0h-5.454v5.455h5.454zM60 5.455h-5.455v5.454H60zm5.454 5.455H60v5.454h5.454zm18.317-5.455H65.455v5.454h21.818V5.455zm8.956 5.455h-5.454v5.454h5.454z"/><path fill="#d390ff" d="M109.091 54.153V49.09h-5.455V38.18h5.455V27.274h-5.455v-5.455H87.273V10.91H65.455v5.455H60V10.91h-5.455V5.455H43.637v5.454h-5.454v5.455h-5.455v10.909H10.91v5.454H5.455v15.971h5.454v5.455h5.455v5.454h5.454v10.91h-5.454v5.454h-5.455V86.88h16.364v5.455h5.454v5.454h5.455v5.455H49.09v-5.455h16.364v5.455h16.363v-5.455h5.455v-5.454h5.454v5.454h16.364v-5.454h5.455v-10.91h-5.455v-5.454h-5.455v-5.455h5.455v-5.454h5.455v-10.91zm-48.044-.622v12.393h-4.134v8.258h-4.135v4.134H40.386v-4.134H36.25v-8.258h-4.135V49.407h4.135V41.15h4.135v-4.134h12.392v4.134h4.135v8.258h4.134v4.135zm33.044 0v12.393h-4.135v8.258h-4.134v4.134H73.429v-4.134h-4.134v-8.258H65.16V49.407h4.135V41.15h4.134v-4.134h12.393v4.134h4.134v8.258h4.135v4.135z"/><path fill="#000" d="M92.727 16.363h-5.454v5.455h5.454zm5.455 0h-5.455v5.455h5.455zm5.454 0h-5.454v5.455h5.454zm5.455 0h-5.455v5.455h5.455zm0 5.455h-5.455v5.455h5.455zm5.454 10.909v-5.454h-5.454v10.909h5.454zm-5.454 15.971V38.182h-5.455V49.09h5.455v5.062h5.455v-5.455zm5.454 10.909v5.455H120V54.153h-5.455zm0 5.455h-5.454v5.454h5.454zm-5.454 5.454h-5.455v5.455h5.455zm5.454 5.454h-5.454v5.456h5.454zm0 16.365H120V81.426h-5.455zm0 0h-5.454v5.454h5.454zM98.182 97.79h-5.455v5.454h16.364v-5.455H98.182m-5.455-5.454h-5.454v5.454h5.454zm-5.454 5.455h-5.455v5.454h5.455zm-16.363 5.454h-5.455v5.454h16.363v-5.454zM60 97.79H49.09v5.454h16.363v-5.455zm-21.818 5.454v5.454H49.09v-5.454zm0-5.454h-5.455v5.454h5.455zm-5.455-5.455h-5.454v5.454h5.454zm-5.454-5.455H10.909v5.454h16.364zM5.455 81.426v5.454h5.454V75.971H5.455zm10.909-10.91h-5.455v5.455h5.455zm-.001 0h5.455V59.607h-5.455zm.001-16.363h-5.455v5.454h5.455z"/></g><defs><clipPath id="clip0_1741_64"><path fill="#fff" d="M0 0h120v108.698H0z"/></clipPath></defs></svg>
